X:1
T:Title
%%score { ( 1 3 ) | ( 2 4 ) }
L:1/8
M:4/4
K:F
V:1 treble nm="Grand Piano"
V:3 treble 
V:2 bass 
V:4 bass 
V:1
 z4 z2[Q:1/4=94] CD | CFFG A_A=Ad |[M:3/4] c6 |[M:1/4] cc |[M:4/4] [Fd][Fd][Fd][Fd] ccBA | %5
[M:3/4] [EG]6 |[M:1/4] [CFA][CGB] |[M:4/4] [FAc][FAc][CFA][CGB] [FAc]2 [CFA][CGB] | %8
[M:3/4] [FAc][FAc] [CFA][CGB] [FAc]2 |[M:1/4] [Fc][Fc] |[M:4/4] [Fd][Fd]fd cA [B,EG]>F | %11
[M:3/4] F6 |[M:1/4] cc |[M:4/4] [Fd]2 [DB][DB] [DB]2 [Fd][Fd] | c2 AA A2 cc | %15
 [Fd][Fd][Fd][Fd] ccBA |[M:3/4] [EG]6 |[M:1/4] [CFA][CGB] | %18
[M:4/4] [FAc][FAc][CFA][CGB] [FAc]2 [CFA][CGB] |[M:3/4] [FAc][FAc] [CFA][CGB] [FAc]2 | %20
[M:1/4] [Fc][Fc] |[M:4/4] [Fd][Fd]fd cA [B,EG]>[A,F] |[M:7/4] [A,F]6 z2 z2 z4 |] %23
V:2
 z4 z2 [F,A,][F,B,] | [F,A,][F,A,C][F,A,C][F,B,C] [F,CF][F,=B,F][F,CF][F,_B,F] |[M:3/4] F6 | %3
[M:1/4] [F,A,F][F,A,F] |[M:4/4] [B,,B,][B,,B,][B,,B,][B,,B,] [F,A,F][F,A,F][G,CE][F,CF] | %5
[M:3/4] [C,C]2 C,C, C,2 |[M:1/4] F,F, |[M:4/4] F,F,F,F, F,2 F,F, |[M:3/4] F,F, F,F, F,2 | %9
[M:1/4] [F,A,][F,A,] |[M:4/4] [B,,B,][B,,B,][K:treble][B,DF][B,F][K:bass] [F,F]-[F,CF] C,>[F,A,] | %11
[M:3/4] [F,A,]6 |[M:1/4] [F,A,F][F,A,F] |[M:4/4] [B,,B,]2 [B,,B,][B,,B,] [B,,B,]2 [B,,B,][B,,B,] | %14
 [F,A,F]2 [F,CF][F,CF] [F,CF]2 [F,A,F][F,A,F] | %15
 [B,,B,][B,,B,][B,,B,][B,,B,] [F,A,F][F,A,F][G,CE][F,CF] |[M:3/4] [C,C]2 C,C, C,2 |[M:1/4] F,F, | %18
[M:4/4] F,F,F,F, F,2 F,F, |[M:3/4] F,F, F,F, F,2 |[M:1/4] [F,A,][F,A,] | %21
[M:4/4] [B,,B,][B,,B,][K:treble][B,DF][B,F][K:bass] [F,F]-[F,CF] C,>F, |[M:7/4] F,6 z2 z2 z4 |] %23
V:3
 x8 | x8 |[M:3/4] z2 A,A, A,2 |[M:1/4] x2 |[M:4/4] x8 |[M:3/4] z2 CC C2 |[M:1/4] x2 |[M:4/4] x8 | %8
[M:3/4] x6 |[M:1/4] x2 |[M:4/4] x8 |[M:3/4] x6 |[M:1/4] x2 |[M:4/4] x8 | x8 | x8 | %16
[M:3/4] z2 CC C2 |[M:1/4] x2 |[M:4/4] x8 |[M:3/4] x6 |[M:1/4] x2 |[M:4/4] x8 |[M:7/4] x14 |] %23
V:4
 x8 | x8 |[M:3/4] [F,A,]2 F,F, F,2 |[M:1/4] x2 |[M:4/4] x8 |[M:3/4] x6 |[M:1/4] x2 |[M:4/4] x8 | %8
[M:3/4] x6 |[M:1/4] x2 |[M:4/4] z4[K:treble][K:bass] .A,2 z2 |[M:3/4] x6 |[M:1/4] x2 |[M:4/4] x8 | %14
 x8 | x8 |[M:3/4] x6 |[M:1/4] x2 |[M:4/4] x8 |[M:3/4] x6 |[M:1/4] x2 | %21
[M:4/4] z4[K:treble][K:bass] .A,2 z2 |[M:7/4] x14 |] %23

